!!!OTL: 356. Ende der Franzosenherrschaft. 1813 (1871.)
!!!ARE: Europa, Mitteleuropa, Deutschland, Ober - Hessen, Wiesenbreidenbach
!!!SCT: E0356A
!!!TXL: @@DE
!!!YEM: Copyright 1995, estate of Helmut Schaffrath.
**kern	**text
*ICvox	*
*M2/4	*
*k[b-]	*
*F:	*
=1	=1
!LO:TX:a:t=Mel. 1857 aus Oberheſſen (Wieſenbreidenbach).	!
{4cc	Jhr
4cc	Fran-
=2	=2
(4ff	-ʒo-
8cc)	.
8a	-ſen
=3	=3
(4cc	geht
8g)	.
8g	nach
=4	=4
(4b-/	Haus,
4a)}	.
=5	=5
{4cc	weil
4cc	jetʒt
=6	=6
(4ff	eu-
8cc)	.
8a	-re
=7	=7
(4cc	Ʒeit
8g)	.
8g	iſt
=8	=8
(4b-/	aus
4a)}	.
=9	=9
{8a	Jhr
8a	wart_ins
8a	deut-
8cc	-ſche
=10	=10
8cc	Reich
8g	ge-
8g	-kom-
8g}	-men,
=11	=11
{8b-	al-
8b-	-les
8b-	Un-
8dd	-glück
=12	=12
8cc	an-
8a	-ʒu-
8a	-fan-
8a}	-gen,
=13	=13
{8cc	ihr
8cc	war't
8cc	auf
8ff	der
=14	=14
8ff	Welt
8dd	nichts
8dd}	nutʒ,
{8dd	doch
=15	=15
8cc	bo-
8ff	-tet
8ff	ihr
8aa	den
=16	=16
4gg	Deut-
4ee	-ſchen
=17	=17
4ff	Trotʒ.
4r}	.
==	==
!!!AGN: historisches Lied, Krieg gegen die Franzosen (1813 und 1871)
!!!ONB: ESAC (Essen Associative Code) Database: ERK1
!!!AMT: simple duple
!!!AIN: vox
!!!EED: Helmut Schaffrath
!!!EEV: 1.0
!!!GTL: Historische Lieder
!!!URL-scan: https://rosdok.uni-rostock.de/mcrviewer/recordIdentifier/rosdok_ppn745177662/iview2/phys_0173.iview2?x=-554.0825755873236&y=1199.4321707517374&scale=0.46959934367803174&rotation=0&layout=singlePageLayout
!!!ENC: Anna Maria Matuszewska
!!!EEV: 2024/09/12
*-	*-
